X:1
T:Title
%%score { ( 1 3 5 ) | ( 2 4 6 ) }
L:1/8
M:4/4
K:Bb
V:1 treble nm="Grand Piano"
V:3 treble 
V:5 treble 
V:2 bass 
V:4 bass 
V:6 bass 
V:1
 z4 z2[Q:1/4=108] [G,B,]2 | [G,B,E]2 [B,EG]2 [EGc]2 [_DGB]2 | [CGB]3 [CEA] [B,D_A]2 [B,EG]2 | %3
 G2 z2 [_A,G]2 z2 | B6 z2 | E2 G2 [Gc]2 [GB]2 | [FB]3 c d2 [Ge]2 | d2 c2 F2 c2 | [DB]6 B2 | %9
 c2 d2 f2 e2 | d3 c B2 _A2 | G2 G2 [FA]2 [F=B]2 | [Ec]6 c2 | c2 e2 d2 c2 | e2 B2 _A2 G2 | %15
 G2 F2 c2 d2 | B6 B2 | B6 z2 | c6 z2 | d6 z2 | z4 f2 z2 | [Bg]2 z2[K:bass] z2[K:treble] e2 | %22
 [_Ae]2 [Ee]4 [E^F=A]2 | %23
 z4 z2 [_Ad]2[Q:1/4=106][Q:1/4=105][Q:1/4=103][Q:1/4=101][Q:1/4=100][Q:1/4=98][Q:1/4=96][Q:1/4=95][Q:1/4=93][Q:1/4=91][Q:1/4=89][Q:1/4=88][Q:1/4=86][Q:1/4=84][Q:1/4=83] | %24
[M:3/4] [Ge]6 |] %25
V:2
 z4 z2 E,2 | E,2 E,2 E,2 =E,2 | F,3 ^F, =F,2 E,2 | z2 F2 B,,2 [_A,B,]2 | %4
 [G,B,E]2 [F,_A,]2 [E,G,]2 [D,A,]2 | [E,G,B,]2 [E,B,E]2 [E,E]2 [E,E]2 | %6
 [D,B,]3[K:treble] [F,A,F] [B,F]2[K:bass] [E,B,]2 | [F,B,F]2 [F,A,E]2 [F,A,E]2 [F,A,E]2 | %8
 [B,,B,]6[K:treble] [B,DF]2 | [A,CF]2 [_A,B,F]2 [G,B,E]2 [G,B,E]2 | %10
 [^F,A,E]3 [F,A,E] [G,B,E]2 [=F,B,D]2 | [E,B,E]2 [E,B,E]2 [D,=B,]2 [D,G,]2 | %12
 [C,G,]6[K:treble] [CE]2 | [A,E^F]2 [A,CF]2 [A,CF]2 [A,EF]2 | %14
 [B,EG]2 [_DEG]2 [CE]2[K:bass] [B,E]2 | [A,CE]2 [A,CE]2 [F,A,E]2 [F,A,F]2 | [B,D]6 [DF]2 | %17
 [DF]6[K:bass] z2 | [EF]6 z2 | [F_A]6 z2 | [B,,B,]2 [B,,B,_DG]2[K:treble] .[B,=D_A]2 G,[K:bass]F, | %21
 E2 z2 z4 | _A,2 A,4 z2 | B,,2 G,,2 F,,2 .[B,,B,]2 |[M:3/4] [E,B,]6 |] %25
V:3
 x8 | x8 | x8 | [A,E]4 D2- [DF]2 | z2 D2 E2 B,2 | x8 | x8 | x8 | x8 | x8 | x8 | x8 | x8 | x8 | x8 | %15
 x8 | x8 | z2 B,2 z2 B2 | z2 B,2 z2 c2 | z2 B,2 B,2 [F_Ad]2 | [EGe]2 =e2 z _A, [DB]2 | %21
 z2 e4[K:bass][K:treble] z2 | x8 | [EGB]2 [EB]2 [EAc]2 FB, |[M:3/4] x6 |] %25
V:4
 x8 | x8 | x8 | C,4 z4 | x8 | x8 | x3[K:treble] x3[K:bass] x2 | x8 | x6[K:treble] x2 | x8 | x8 | %11
 x8 | x6[K:treble] x2 | x8 | x6[K:bass] x2 | x8 | x8 | z2[K:bass] B,,2 z2 [DF]2 | %18
 z2 B,,2 z2 [EF]2 | z2 B,,2 B,,2 [B,,B,]2 | x4[K:treble] x3[K:bass] x | %21
 E,2- [E,B,-G-]2 [B,G]2 [B,G]2 | C,4 =B,,2 B,,2 | x8 |[M:3/4] x6 |] %25
V:5
 x8 | x8 | x8 | x8 | x8 | x8 | x8 | x8 | x8 | x8 | x8 | x8 | x8 | x8 | x8 | x8 | x8 | z4 B,4- | %18
 B,2 z2 B,4- | B,2 z2 z4 | x8 | z4[K:bass] _D,4[K:treble] | x8 | x8 |[M:3/4] x6 |] %25
V:6
 x8 | x8 | x8 | x8 | x8 | x8 | x3[K:treble] x3[K:bass] x2 | x8 | x6[K:treble] x2 | x8 | x8 | x8 | %12
 x6[K:treble] x2 | x8 | x6[K:bass] x2 | x8 | x8 | z4[K:bass] B,,4- | B,,2 z2 B,,4- | B,,2 z2 z4 | %20
 x4[K:treble] x3[K:bass] x | x8 | x8 | x8 |[M:3/4] x6 |] %25

